dist/images/icons/less.svg

<svg width="63" height="28" viewBox="0 0 63 28" fill="none" xmlns="http://www.w3.org/2000/svg">
<path d="M59.7656 10.6367C59.7656 8.68359 60.0586 7.51172 60.0586 5.36328C60.0586 2.04297 58.8867 0.96875 56.1523 0.96875H54.1016V3.3125H54.7852C56.1523 3.3125 56.4453 3.80078 56.4453 5.46094C56.4453 7.02344 56.25 8.68359 56.25 10.4414C56.25 12.8828 57.0312 13.7617 58.5938 14.1523V14.25C57.0312 14.6406 56.25 15.5195 56.25 17.9609C56.25 19.8164 56.4453 21.2812 56.4453 22.9414C56.4453 24.6992 56.0547 25.1875 54.7852 25.1875H54.1016V27.6289H56.1523C58.8867 27.6289 60.0586 26.5547 60.0586 23.2344C60.0586 21.0859 59.7656 19.9141 59.7656 17.9609C59.7656 16.8867 60.4492 15.7148 62.5 15.6172V12.9805C60.4492 12.8828 59.7656 11.7109 59.7656 10.6367ZM49.5117 13.7617C47.9492 13.1758 46.4844 12.7852 46.4844 11.8086C46.4844 11.0273 47.0703 10.5391 48.2422 10.5391C49.4141 10.5391 50.3906 11.0273 51.5625 11.8086L53.6133 9.17188C52.3438 8.19531 50.5859 7.12109 48.1445 7.12109C44.7266 7.12109 42.3828 9.17188 42.3828 12.0039C42.3828 14.4453 44.5312 15.7148 46.3867 16.4961C47.9492 17.082 49.5117 17.5703 49.5117 18.6445C49.5117 19.4258 48.9258 19.9141 47.5586 19.9141C46.2891 19.9141 44.9219 19.4258 43.5547 18.3516L41.5039 21.2812C43.0664 22.5508 45.4102 23.4297 47.3633 23.4297C51.4648 23.4297 53.7109 21.2812 53.7109 18.4492C53.7109 15.6172 51.4648 14.4453 49.5117 13.7617ZM14.4531 19.6211C14.0625 19.6211 13.5742 19.3281 13.5742 18.3516V0.96875H6.34766C3.51562 0.96875 2.34375 2.04297 2.34375 5.36328C2.34375 7.51172 2.63672 8.78125 2.63672 10.6367C2.63672 11.7109 1.95312 12.8828 0 12.9805V15.6172C1.95312 15.7148 2.63672 16.7891 2.63672 17.8633C2.63672 19.8164 2.34375 20.8906 2.34375 23.1367C2.34375 26.457 3.51562 27.5312 6.25 27.5312H8.30078V25.1875H7.61719C6.34766 25.1875 5.95703 24.6992 5.95703 22.9414C5.95703 21.2812 6.15234 19.8164 6.15234 17.9609C6.15234 15.6172 5.37109 14.6406 3.80859 14.3477V14.1523C5.37109 13.7617 6.15234 12.8828 6.15234 10.5391C6.15234 8.68359 5.95703 7.12109 5.95703 5.46094C5.95703 3.80078 6.34766 3.3125 7.61719 3.3125H9.08203V18.0586C9.08203 21.1836 10.1562 23.2344 13.2812 23.2344C14.2578 23.2344 15.0391 23.0391 15.5273 22.8438L15.0391 19.5234C14.7461 19.6211 14.5508 19.6211 14.4531 19.6211ZM37.0117 13.7617C35.4492 13.1758 33.9844 12.7852 33.9844 11.8086C33.9844 11.0273 34.668 10.5391 35.7422 10.5391C36.9141 10.5391 37.8906 11.0273 39.0625 11.8086L41.1133 9.17188C39.8438 8.19531 38.0859 7.12109 35.7422 7.12109C32.2266 7.12109 29.8828 9.17188 29.8828 12.0039C29.8828 14.4453 32.0312 15.7148 33.8867 16.4961C35.5469 17.082 37.0117 17.5703 37.0117 18.6445C37.0117 19.4258 36.4258 19.9141 35.0586 19.9141C33.7891 19.9141 32.5195 19.4258 31.0547 18.3516L29.1016 21.2812C30.6641 22.5508 33.0078 23.4297 34.9609 23.4297C39.0625 23.4297 41.2109 21.2812 41.2109 18.4492C41.3086 15.6172 39.0625 14.4453 37.0117 13.7617ZM21.875 7.12109C18.1641 7.12109 14.5508 10.2461 14.6484 15.1289C14.6484 20.207 18.0664 23.2344 22.4609 23.2344C24.3164 23.2344 26.3672 22.5508 27.9297 21.4766L26.3672 18.7422C25.1953 19.4258 24.1211 19.7188 23.0469 19.7188C20.9961 19.7188 19.4336 18.7422 18.9453 16.3984H28.3203C28.3203 16.0078 28.418 15.3242 28.418 14.4453C28.5156 10.3438 26.2695 7.12109 21.875 7.12109ZM18.9453 13.5664C19.3359 11.5156 20.5078 10.5391 21.9727 10.5391C23.8281 10.5391 24.5117 11.8086 24.5117 13.5664H18.9453Z" fill="#fff"/>
</svg>

<svg width="63" height="28" fill="none" xmlns="http://www.w3.org/2000/svg"><path d="M59.766 10.637c0-1.953.293-3.125.293-5.274 0-3.32-1.172-4.394-3.907-4.394h-2.05v2.344h.683c1.367 0 1.66.488 1.66 2.148 0 1.562-.195 3.223-.195 4.98 0 2.442.781 3.32 2.344 3.711v.098c-1.563.39-2.344 1.27-2.344 3.71 0 1.856.195 3.321.195 4.981 0 1.758-.39 2.247-1.66 2.247h-.683v2.44h2.05c2.735 0 3.907-1.073 3.907-4.394 0-2.148-.293-3.32-.293-5.273 0-1.074.683-2.246 2.734-2.344V12.98c-2.05-.097-2.734-1.27-2.734-2.343zm-10.254 3.125c-1.563-.586-3.028-.977-3.028-1.953 0-.782.586-1.27 1.758-1.27 1.172 0 2.149.488 3.32 1.27l2.051-2.637c-1.27-.977-3.027-2.05-5.468-2.05-3.418 0-5.762 2.05-5.762 4.882 0 2.441 2.148 3.71 4.004 4.492 1.562.586 3.125 1.074 3.125 2.149 0 .78-.586 1.27-1.953 1.27-1.27 0-2.637-.49-4.004-1.563l-2.051 2.93c1.562 1.269 3.906 2.148 5.86 2.148 4.1 0 6.347-2.149 6.347-4.98 0-2.833-2.246-4.005-4.2-4.688zm-35.059 5.86c-.39 0-.879-.294-.879-1.27V.969H6.348c-2.832 0-4.004 1.074-4.004 4.394 0 2.149.293 3.418.293 5.274 0 1.074-.684 2.246-2.637 2.343v2.637c1.953.098 2.637 1.172 2.637 2.246 0 1.953-.293 3.028-.293 5.274 0 3.32 1.172 4.394 3.906 4.394H8.3v-2.343h-.683c-1.27 0-1.66-.489-1.66-2.247 0-1.66.195-3.125.195-4.98 0-2.344-.78-3.32-2.343-3.613v-.196c1.562-.39 2.343-1.27 2.343-3.613 0-1.855-.195-3.418-.195-5.078 0-1.66.39-2.149 1.66-2.149h1.465V18.06c0 3.125 1.074 5.175 4.2 5.175.976 0 1.757-.195 2.245-.39l-.488-3.32a1.718 1.718 0 01-.586.097zm22.559-5.86c-1.563-.586-3.028-.977-3.028-1.953 0-.782.684-1.27 1.758-1.27 1.172 0 2.149.488 3.32 1.27l2.051-2.637c-1.27-.977-3.027-2.05-5.37-2.05-3.516 0-5.86 2.05-5.86 4.882 0 2.441 2.148 3.71 4.004 4.492 1.66.586 3.125 1.074 3.125 2.149 0 .78-.586 1.27-1.953 1.27-1.27 0-2.54-.49-4.004-1.563l-1.953 2.93c1.562 1.269 3.906 2.148 5.859 2.148 4.102 0 6.25-2.149 6.25-4.98.098-2.833-2.148-4.005-4.2-4.688zm-15.137-6.64c-3.71 0-7.324 3.124-7.227 8.007 0 5.078 3.418 8.105 7.813 8.105 1.855 0 3.906-.683 5.469-1.757l-1.563-2.735c-1.172.684-2.246.977-3.32.977-2.05 0-3.613-.977-4.102-3.32h9.375c0-.391.098-1.075.098-1.954.098-4.101-2.148-7.324-6.543-7.324zm-2.93 6.444c.39-2.05 1.563-3.027 3.028-3.027 1.855 0 2.539 1.27 2.539 3.027h-5.567z" fill="#fff"/></svg>
